public/assets/apple.svg

<svg width="50" height="50" viewBox="0 0 50 50" xmlns="http://www.w3.org/2000/svg"><path fill="#4acd8d" d="M31.876 7.983c1.746-2.112 2.921-5.056 2.6-7.983-2.516.102-5.56 1.677-7.364 3.79-1.619 1.87-3.036 4.864-2.652 7.733 2.804.219 5.671-1.425 7.416-3.54m6.292 18.58c.071 7.566 6.638 10.085 6.711 10.118-.055.177-1.048 3.588-3.461 7.111-2.083 3.045-4.246 6.081-7.654 6.143-3.348.061-4.423-1.985-8.252-1.985-3.825 0-5.021 1.923-8.192 2.046-3.287.125-5.791-3.294-7.894-6.327-4.293-6.209-7.575-17.542-3.168-25.192 2.189-3.8 6.1-6.206 10.346-6.267 3.229-.062 6.277 2.173 8.252 2.173 1.973 0 5.677-2.687 9.57-2.293 1.632.068 6.207.658 9.146 4.96-.237.146-5.46 3.188-5.404 9.513"/></svg>

<svg width="50" height="50" viewBox="0 0 50 50" fill="none" xmlns="http://www.w3.org/2000/svg">
<path d="M31.876 7.983C33.622 5.871 34.797 2.927 34.476 0C31.96 0.102 28.916 1.677 27.112 3.79C25.493 5.66 24.076 8.654 24.46 11.523C27.264 11.742 30.131 10.098 31.876 7.983M38.168 26.563C38.239 34.129 44.806 36.648 44.879 36.681C44.824 36.858 43.831 40.269 41.418 43.792C39.335 46.837 37.172 49.873 33.764 49.935C30.416 49.996 29.341 47.95 25.512 47.95C21.687 47.95 20.491 49.873 17.32 49.996C14.033 50.121 11.529 46.702 9.426 43.669C5.133 37.46 1.851 26.127 6.258 18.477C8.447 14.677 12.358 12.271 16.604 12.21C19.833 12.148 22.881 14.383 24.856 14.383C26.829 14.383 30.533 11.696 34.426 12.09C36.058 12.158 40.633 12.748 43.572 17.05C43.335 17.196 38.112 20.238 38.168 26.563" fill="#8B5CF6"/>
</svg>
